X:330
T:Enrico
C:Traditional English
R:Reel
L:1/8
S:Colin Hume's website,  colinhume.com  - chords can also be printed below the stave.
Q:1/2=112
M:2/2
K:D
P:A
|: A2 | "D"d2fe dcdB | ABAG F2A2 | "D"d2ef "Em"gfgf | "A"e2a2 "A7"a2A2 |\
"D"d2fe dcdB | ABAG F2A2 | "G"B2gf "A7"edec | "D"d2d2 d2 :|
P:B
|: fg | "F#m"a2ag fgfe | "Bm"dedc B2B2 | "Em"gagf efed | "A"cdcB "A7"A2A2 |\
"D"d2d2 "A"cecA | "D"d2d2 "A"cecA | "D"d2f2 "A7"edec | "D"d2d2 d2 :|

